X:1
T:Title
%%score 1 { 2 | 3 }
L:1/8
Q:1/4=102
M:4/4
K:Ab
V:1 treble nm="Grand Piano, Soprano"
V:2 bass nm="Choir Pad, We’ll Never Say Goodbye"
V:3 bass 
V:1
 [Ec]>[DB] [CA]2 [CE]2 [CE]2 | [CA]>[EG] [EG]2 [DF]2 [DF]2 | [DB]>[DA] [DG]2 [DG]>[DF] [DE]2 | %3
w: By~George~Crawford~Hugg * * * *|||
 [Ed]2 [Ec]6 | [Ec]>[DB] [CA]2 [CE]2 [CE]2 | [CA]>[EG] [EG]2 [DF]2 [DF]2 | %6
w: |||
 [DB]>[DA] [DG]2 [DG]>[DF] [DE]2 | [DB]2 [CA]6 | [A,C]>[B,D] [CE]4 [Ec]2 | [Ec]>[Ec] [DB]4 [DF]2 | %10
w: ||||
 [DA]>[DA] [DG]2 [DB]>[DB] [B,D]2 | [DF]2 [CE]6 | [A,C]>[B,D] [CE]4 [Ec]2 | [Ec]>[Ec] [DB]4 [DF]2 | %14
w: ||||
 [DA]>[DA] [EG][EB] z2 [Ed]2- | [Ed][EG] [EA]6- | [EA]2 z2 z4 |] %17
w: |||
V:2
 A,>A, A,2 A,2 A,2 | E,>A, A,2 A,2 A,2 | F,>F, B,2 B,>A, G,2 | B,2 A,6 | A,>A, A,2 A,2 A,2 | %5
 E,>A, A,2 A,2 A,2 | F,>F, B,2 B,>A, G,2 | G,2 A,6 | E,>E, A,2 A,2 A,2 | A,>A, F,2 F,2 A,2 | %10
 F,>F, B,2 G,>G, G,2 | G,2 A,6 | E,>E, A,2 A,2 A,2 | A,>A, F,2 F,2 A,2 | %14
 F,>F, B,G, z2[K:treble] B,2- | B,D C6- | C2 z2 z4 |] %17
V:3
 A,,>A,, A,,2 A,,2 A,,2 | A,,>A,, D,2 D,2 D,2 | D,>D, E,2 E,>E, E,2 | E,2 A,,6 | %4
 A,,>A,, A,,2 A,,2 A,,2 | A,,>A,, D,2 D,2 D,2 | D,>D, E,2 E,>E, E,2 | E,2 A,,6 | %8
 A,,>A,, A,,2 A,,2 A,,2 | A,,>A,, D,2 D,2 D,2 | D,>D, E,2 E,>E, E,2 | E,2 A,,6 | %12
 A,,>A,, A,,2 A,,2 A,,2 | A,,>A,, D,2 D,2 D,2 | D,>D, E,E, z2 E,2- | E,E, [A,,A,]6- | %16
 [A,,A,]2 z2 z4 |] %17

